skate.svg

<svg fill="currentColor" viewBox="0 0 24 24"><path d="M20.95 17c-.25 1.69-1.69 3-3.45 3H16v-2h3c-.07-1.28.26-3.96-.47-5.05-.97-2.05-3.7-2.39-5.6-2.9C12 10 11 9 10.84 8H8c-.28 0-.5-.22-.5-.5S7.72 7 8 7h2.5V6H8c-.28 0-.5-.22-.5-.5S7.72 5 8 5h2.5V2H2.03v16H5v2H1v2h16.5c2.86 0 5.22-2.2 5.5-5zM14 20H7v-2h7z"/></svg>

<svg  viewBox="0 0 24 24" fill="currentColor"><path  d="M20.95 17C20.7 18.69 19.26 20 17.5 20H16V18H19C18.93 16.72 19.26 14.04 18.53 12.95C17.56 10.9 14.83 10.56 12.93 10.05C12 10 11 9 10.84 8H8C7.72 8 7.5 7.78 7.5 7.5C7.5 7.22 7.72 7 8 7H10.5V6H8C7.72 6 7.5 5.78 7.5 5.5C7.5 5.22 7.72 5 8 5H10.5V2H2.03V18H5V20H1V22H17.5C20.36 22 22.72 19.8 23 17H20.95M14 20H7V18H14V20Z"/></svg>
